svg/material-icons/token/materialiconsoutlined/24px.svg

<svg xmlns="http://www.w3.org/2000/svg" width="24" height="24" viewBox="0 0 24 24"><path d="m21 7-9-5-9 5v10l9 5 9-5V7zm-9-2.71 5.91 3.28-3.01 1.67C14.17 8.48 13.14 8 12 8s-2.17.48-2.9 1.24L6.09 7.57 12 4.29zm-1 14.87-6-3.33V9.26L8.13 11c-.09.31-.13.65-.13 1 0 1.86 1.27 3.43 3 3.87v3.29zM10 12c0-1.1.9-2 2-2s2 .9 2 2-.9 2-2 2-2-.9-2-2zm3 7.16v-3.28c1.73-.44 3-2.01 3-3.87 0-.35-.04-.69-.13-1.01L19 9.26v6.57l-6 3.33z"/></svg>

<svg xmlns="http://www.w3.org/2000/svg" enable-background="new 0 0 24 24" height="24" viewBox="0 0 24 24" width="24"><rect fill="none" height="24" width="24" y="0"/><path d="M21,7l-9-5L3,7v10l9,5l9-5L21,7z M12,4.29l5.91,3.28L14.9,9.24C14.17,8.48,13.14,8,12,8S9.83,8.48,9.1,9.24L6.09,7.57 L12,4.29z M11,19.16l-6-3.33V9.26l3.13,1.74C8.04,11.31,8,11.65,8,12c0,1.86,1.27,3.43,3,3.87V19.16z M10,12c0-1.1,0.9-2,2-2 s2,0.9,2,2s-0.9,2-2,2S10,13.1,10,12z M13,19.16v-3.28c1.73-0.44,3-2.01,3-3.87c0-0.35-0.04-0.69-0.13-1.01L19,9.26l0,6.57L13,19.16 z"/></svg>
